assets/symbols/mulberry/surgery_health_centre.svg

<svg height="850.394" viewBox="0 0 850.394 850.394" width="850.394" xmlns="http://www.w3.org/2000/svg"><path d="m246.836 505.571v58.206h-33.921v-60.017h33.921zm-69.11-1.811v60.017h-32.986v-60.017zm354.217 0v60.017h-32.998v-60.017z" fill="#fff"/><path d="m435.956 539.244v178.619h-62.041v-178.619z" fill="#34a047"/><path d="m110.818 563.777h33.922v61.579h-33.922zm490.236-58.206v58.206h-33.922v-60.017h33.922zm-456.314 0v58.206h-33.922v-60.017h33.922z" fill="#fff"/><path d="m373.915 715.648v2.215h-62.042v-178.619h62.042v3.694z" fill="#34a047"/><path d="m634.04 503.76v60.017h-32.986v-60.017zm-421.125 60.017h33.921v61.579h-33.921zm286.03 0h32.998v61.579h-32.998zm-252.109 0h32.986v61.579h-32.986z" fill="#fff"/><path d="m631.222 317.635 33.401 100.616-3.588 1.196h-578.124v-.237l33.685-101.575z" fill="#231f20"/><path d="m279.822 503.76v60.017h-32.986v-60.017zm219.123 1.811v58.206h-33.91v-60.017h33.91z" fill="#fff"/><path d="m664.907 419.092v300.618h-581.996v-300.263h578.124l3.588-1.196h.012zm-353.034 298.771h124.083v-178.619h-124.083zm322.167-92.507v-121.596h-66.908v121.597h66.908zm-102.097 0v-121.596h-66.908v121.597h66.908zm-252.121 0v-121.596h-66.907v121.597h66.907zm-102.096 0v-121.596h-66.908v121.597h66.908z" fill="#fff5b4"/><path d="m465.035 563.777h33.91v61.579h-33.91zm102.097 0h33.922v61.579h-33.922zm33.922 0h32.986v61.579h-32.986zm-456.314 0h32.986v61.579h-32.986z" fill="#fff"/><g fill="none" stroke="#231f20"><path d="m82.911 419.447v-.237l33.685-101.575h514.626l33.401 100.616h.012l.272.841v300.618h-581.996z" stroke-width="16.576"/><path d="m373.915 539.244h62.041v178.619h-124.083v-178.619zm-196.189 24.533v61.579h-66.908v-121.596h66.908z" stroke-width="16.576"/><path d="m110.818 563.777h66.908m-32.986-58.206v119.785" stroke-width="8.288"/><path d="m279.822 563.777v61.579h-66.907v-121.596h66.907z" stroke-width="16.576"/><path d="m212.915 563.777h66.907m-32.986-58.206v119.785" stroke-width="8.288"/><path d="m531.943 563.777v61.579h-66.908v-121.596h66.908z" stroke-width="16.576"/><path d="m465.035 563.777h66.908m-32.998-58.206v119.785" stroke-width="8.288"/><path d="m634.04 563.777v61.579h-66.908v-121.596h66.908z" stroke-width="16.576"/><path d="m567.132 563.777h66.908m-32.986-58.206v119.785" stroke-width="8.288"/><path d="m373.915 542.938v172.71m-291.975-296.201h579.095" stroke-width="16.576"/></g><path d="m0 0h850.394v850.394h-850.394z" fill="none"/><path d="m767.066 148.961v30.637l-25.167 4.376v32.388l-28.009 5.689v-33.702l-26.481 4.816v-31.293l25.385-4.375v-30.419l27.576-4.379v30.419z" fill="#fff"/><path d="m753.778 69.083c.454-.014.919-.021 1.388-.021 7.912 0 14.331 2.043 14.331 4.562 0 2.516-6.419 4.559-14.331 4.559-7.916 0-14.334-2.043-14.334-4.559 0-2.372 5.683-4.32 12.946-4.541z" fill="#231f20"/><path d="m637.484 101.203 175.269-19.604v162.008l-175.269 38.053zm129.582 78.395v-30.637l-26.696 4.157v-30.419l-27.576 4.379v30.419l-25.385 4.375v31.292l26.48-4.815v33.702l28.01-5.689v-32.388z" fill="#34a047"/><path d="m658.906 78.703c6.592.409 11.565 2.254 11.565 4.474 0 2.519-6.415 4.562-14.33 4.562-7.916 0-14.334-2.043-14.334-4.562s6.418-4.558 14.334-4.558c.948 0 1.871.027 2.765.084z" fill="#231f20"/><path d="m753.778 69.083c-7.264.222-12.946 2.17-12.946 4.541 0 2.516 6.418 4.559 14.334 4.559 7.912 0 14.331-2.043 14.331-4.559 0-2.519-6.419-4.562-14.331-4.562a39.59 39.59 0 0 0 -1.388.021zm-6.64-10.287 15.458-1.409 50.815 22.74-.658 1.472-175.269 19.604v180.457l-38.024-44.972.138-164.453 65.382-5.957zm-90.996 19.823c-7.916 0-14.334 2.04-14.334 4.558 0 2.519 6.418 4.562 14.334 4.562 7.915 0 14.33-2.043 14.33-4.562 0-2.219-4.974-4.065-11.565-4.474a43.566 43.566 0 0 0 -2.765-.084z" fill="#34a047"/><g fill="none" stroke="#231f20"><path d="m637.484 101.203v180.457m177.29-200.924-1.363-.61-50.815-22.739-15.458 1.409-82.159 7.482-65.381 5.957-.138 164.453 38.024 44.972 175.269-38.053v-162.008l-175.269 19.604-34.579-25.656" stroke-width="7.398"/><path d="m740.37 153.118v-30.419l-27.576 4.379v30.419l-25.385 4.375v31.293l26.481-4.816v33.702l28.009-5.689v-32.388l25.167-4.376v-30.637z" stroke-width="4.932"/><path d="m658.906 78.703 6.073-12.425 12.443-25.448 55.593-3.911 14.123 21.877 6.64 10.287" stroke-linecap="round" stroke-linejoin="round" stroke-width="14.796"/><path d="m670.472 83.177c0 2.519-6.415 4.562-14.33 4.562-7.916 0-14.334-2.043-14.334-4.562s6.418-4.558 14.334-4.558c.947 0 1.87.028 2.765.084 6.591.409 11.565 2.255 11.565 4.474zm99.025-9.554c0 2.516-6.419 4.559-14.331 4.559-7.916 0-14.334-2.043-14.334-4.559 0-2.371 5.683-4.319 12.946-4.541.454-.014.919-.021 1.388-.021 7.912 0 14.331 2.043 14.331 4.562z" stroke-width="2.606"/></g></svg>

<svg xmlns="http://www.w3.org/2000/svg" width="850.394" height="850.394" viewBox="0 0 850.394 850.394" overflow="visible"><path fill="#fff" d="M246.836 505.571v58.206h-33.921V503.76h33.921zM177.726 503.76v60.017H144.74V503.76zM531.943 503.76v60.017h-32.998V503.76z"/><path fill="#34a047" d="M435.956 539.244v178.619h-62.041V539.244z"/><path fill="#fff" d="M110.818 563.777h33.922v61.579h-33.922zM601.054 505.571v58.206h-33.922V503.76h33.922zM144.74 505.571v58.206h-33.922V503.76h33.922z"/><path fill="#34a047" d="M373.915 715.648v2.215h-62.042V539.244h62.042v3.694z"/><path fill="#fff" d="M634.04 503.76v60.017h-32.986V503.76zM212.915 563.777h33.921v61.579h-33.921zM498.945 563.777h32.998v61.579h-32.998zM246.836 563.777h32.986v61.579h-32.986z"/><path fill="#231f20" d="M631.222 317.635l33.401 100.616-3.588 1.196H82.911v-.237l33.685-101.575z"/><path fill="#fff" d="M279.822 503.76v60.017h-32.986V503.76zM498.945 505.571v58.206h-33.91V503.76h33.91z"/><path d="M664.907 419.092V719.71H82.911V419.447h578.124l3.588-1.196h.012l.272.841zM311.873 717.863h124.083V539.244H311.873v178.619zm322.167-92.507V503.76H567.132V625.357H634.04zm-102.097 0V503.76H465.035V625.357H531.943zm-252.121 0V503.76h-66.907V625.357h66.907zm-102.096 0V503.76H110.818V625.357H177.726z" fill="#fff5b4"/><path fill="#fff" d="M465.035 563.777h33.91v61.579h-33.91zM567.132 563.777h33.922v61.579h-33.922zM601.054 563.777h32.986v61.579h-32.986zM144.74 563.777h32.986v61.579H144.74z"/><g fill="none" stroke="#231f20"><path stroke-width="16.576" d="M82.911 419.447v-.237l33.685-101.575h514.626l33.401 100.616h.012l.272.841V719.71H82.911z"/><path stroke-width="16.576" d="M373.915 539.244h62.041v178.619H311.873V539.244zM177.726 563.777v61.579H110.818V503.76H177.726z"/><path stroke-width="8.288" d="M110.818 563.777H177.726M144.74 505.571v119.785"/><path stroke-width="16.576" d="M279.822 563.777v61.579h-66.907V503.76h66.907z"/><path stroke-width="8.288" d="M212.915 563.777h66.907M246.836 505.571v119.785"/><path stroke-width="16.576" d="M531.943 563.777v61.579H465.035V503.76H531.943z"/><path stroke-width="8.288" d="M465.035 563.777H531.943M498.945 505.571v119.785"/><path stroke-width="16.576" d="M634.04 563.777v61.579H567.132V503.76H634.04z"/><path stroke-width="8.288" d="M567.132 563.777H634.04M601.054 505.571v119.785"/><path stroke-width="16.576" d="M373.915 542.938v172.71M81.94 419.447h579.095"/></g><path fill="none" d="M0 0h850.394v850.394H0z"/><g><path fill="#fff" d="M767.066 148.961v30.637l-25.167 4.376v32.388l-28.009 5.689v-33.702l-26.481 4.816v-31.293l25.385-4.375v-30.419l27.576-4.379v30.419z"/><path d="M753.778 69.083c.454-.014.919-.021 1.388-.021 7.912 0 14.331 2.043 14.331 4.562 0 2.516-6.419 4.559-14.331 4.559-7.916 0-14.334-2.043-14.334-4.559 0-2.372 5.683-4.32 12.946-4.541z" fill="#231f20"/><path d="M637.484 101.203l175.269-19.604v162.008L637.484 281.66V101.203zm129.582 78.395v-30.637l-26.696 4.157v-30.419l-27.576 4.379v30.419l-25.385 4.375v31.292l26.48-4.815v33.702l28.01-5.689v-32.388l25.167-4.376z" fill="#34a047"/><path d="M658.906 78.703c6.592.409 11.565 2.254 11.565 4.474 0 2.519-6.415 4.562-14.33 4.562-7.916 0-14.334-2.043-14.334-4.562s6.418-4.558 14.334-4.558c.948 0 1.871.027 2.765.084z" fill="#231f20"/><path d="M753.778 69.083c-7.264.222-12.946 2.17-12.946 4.541 0 2.516 6.418 4.559 14.334 4.559 7.912 0 14.331-2.043 14.331-4.559 0-2.519-6.419-4.562-14.331-4.562a39.59 39.59 0 0 0-1.388.021zm-6.64-10.287l15.458-1.409 50.815 22.74-.658 1.472-175.269 19.604V281.66l-38.024-44.972.138-164.453 65.382-5.957 82.158-7.482zm-90.996 19.823c-7.916 0-14.334 2.04-14.334 4.558 0 2.519 6.418 4.562 14.334 4.562 7.915 0 14.33-2.043 14.33-4.562 0-2.219-4.974-4.065-11.565-4.474a43.566 43.566 0 0 0-2.765-.084z" fill="#34a047"/><g fill="none" stroke="#231f20"><path stroke-width="7.398" d="M637.484 101.203V281.66M814.774 80.736l-1.363-.61-50.815-22.739-15.458 1.409-82.159 7.482-65.381 5.957-.138 164.453 38.024 44.972 175.269-38.053V81.599l-175.269 19.604-34.579-25.656"/><path stroke-width="4.932" d="M740.37 153.118v-30.419l-27.576 4.379v30.419l-25.385 4.375v31.293l26.481-4.816v33.702l28.009-5.689v-32.388l25.167-4.376v-30.637z"/><path stroke-width="14.796" stroke-linecap="round" stroke-linejoin="round" d="M658.906 78.703l6.073-12.425 12.443-25.448 55.593-3.911 14.123 21.877 6.64 10.287"/><path d="M670.472 83.177c0 2.519-6.415 4.562-14.33 4.562-7.916 0-14.334-2.043-14.334-4.562s6.418-4.558 14.334-4.558c.947 0 1.87.028 2.765.084 6.591.409 11.565 2.255 11.565 4.474zM769.497 73.623c0 2.516-6.419 4.559-14.331 4.559-7.916 0-14.334-2.043-14.334-4.559 0-2.371 5.683-4.319 12.946-4.541.454-.014.919-.021 1.388-.021 7.912 0 14.331 2.043 14.331 4.562z" stroke-width="2.606"/></g></g></svg>
